imgs/apple-store.svg

<svg width="22" height="27" viewBox="0 0 22 27" fill="none" xmlns="http://www.w3.org/2000/svg">
<path fill-rule="evenodd" clip-rule="evenodd" d="M17.644 14.283C17.6465 16.5451 19.0134 18.5865 21.1156 19.4677C20.7113 20.7694 20.1019 21.9995 19.3099 23.1125C18.2463 24.6893 17.1311 26.2298 15.3612 26.2582C13.6414 26.2976 13.0634 25.2552 11.0908 25.2552C9.09973 25.2552 8.48369 26.2298 6.83421 26.2976C5.14859 26.3595 3.86037 24.6146 2.75811 23.0526C0.555004 19.8627 -1.16051 14.0629 1.13938 10.1165C2.21938 8.19312 4.2387 6.97261 6.45853 6.90153C8.14567 6.86713 9.71243 8.03077 10.7497 8.03077C11.7673 8.03077 13.7033 6.63877 15.7002 6.8465C17.5983 6.90536 19.3572 7.84779 20.4464 9.38949C18.7277 10.4367 17.67 12.2836 17.644 14.283ZM14.3956 4.74859C13.4593 5.90272 12.0407 6.5675 10.5465 6.55225C10.4515 5.10516 10.9408 3.67998 11.9066 2.59061C12.8847 1.48649 14.2466 0.788118 15.721 0.634644C15.8361 2.12463 15.3607 3.60041 14.3956 4.74859Z" fill="white"/>
</svg>

<svg width="22" height="27" fill="none" xmlns="http://www.w3.org/2000/svg"><path fill-rule="evenodd" clip-rule="evenodd" d="M17.644 14.283a5.635 5.635 0 003.472 5.185 12.872 12.872 0 01-1.806 3.645c-1.064 1.576-2.179 3.117-3.949 3.145-1.72.04-2.298-1.003-4.27-1.003-1.991 0-2.607.975-4.257 1.043-1.685.062-2.974-1.683-4.076-3.245-2.203-3.19-3.919-8.99-1.619-12.937a6.328 6.328 0 015.32-3.214c1.687-.035 3.253 1.129 4.29 1.129 1.018 0 2.954-1.392 4.951-1.185a6.038 6.038 0 014.746 2.543 5.822 5.822 0 00-2.802 4.894zm-3.248-9.534a4.892 4.892 0 01-3.85 1.803 5.434 5.434 0 011.36-3.961A5.913 5.913 0 0115.722.635a5.709 5.709 0 01-1.325 4.114z" fill="#fff"/></svg>
